X:515
T: SCHOENSTES KIND ZU DEINEN FUESSEN
N: E0504
O: Europa, Mitteleuropa, Deutschland, Berlin
R: Liebes - Lied, Liebeslust
M: 3/4
L: 1/8
K: C
 | GEcAGA | G2F2E2 |
GcAF | E2D2 | C2z2
GEcAGA | G2F2E2 |
GcAF | E2D2 | C2z2
DE | F2D2EF | G2E2
DE | F2D2EF | G2E2z2 |
GEcAGA | G2F2E2 |
GcAF | E2D2 | C2z2

@@@ Tune index: 4165
